!!!!SEGMENT: pl-wtm--r-91-n--002_noskowski-zygmunt--bajki-dwa-zolwie.krn
!!!cenid: 18xx:2131
!!!COM: Noskowski, Zygmunt
!!!COM-rismID: pe106604
!!!CDT: 1846/05/02-1909/07/23
!!!CNT: Polish
!!!GTL: Bajki
!!!OTL: Dwa żółwie
!!!OMV: 002
!!!PDT: 1875
!!!AGN: Secular
!!!SMS-siglum: PL-Wtm
!!!SMS-shelfmark: R 91/N
!!!SMS-shelfwork: 001-002 G
!!!SMS-variant:
!!!SMS-altvar:
!!!NIFC-rismSourceID: 1001084146
!!!NIFC-rismChildID: 1001084146
!!!NIFC-islandoraID:
!!!URL-pdf-islandora:
!!!URL-scan:
!!!IIIF:
!!!ONB-nifc:
!!!AIN: 1 forte 1 vox
!!!key:
!!!OMD:
!!!OMD-mod: Moderato
**kern	**kern	**dynam	**kern	**text	**mod-text	**dynam
*part2	*part2	*part2	*part1	*part1	*part1	*part1
*staff3	*staff2	*	*staff1	*staff1	*staff1	*
*Iforte	*Iforte	*	*Ivox	*	*	*
*I"Fortepian	*I"Fortepian	*	*I"Spiew	*	*	*
*mI"Pianoforte	*mI"Pianoforte	*	*mI"Voce	*	*	*
*I'pf	*I'pf	*	*I'V	*	*	*
*clefF4	*clefG2	*	*clefG2	*	*	*
*k[f#c#g#]	*k[f#c#g#]	*	*k[f#c#g#]	*	*	*
*A:	*A:	*	*A:	*	*	*
*M4/4	*M4/4	*	*M4/4	*	*	*
*met(c)	*met(c)	*	*met(c)	*	*	*
=1	=1	=1	=1	=1	=1	=1
*2\right	*2\right	*	*2\right	*	*	*
!LO:MO:mod=!LO&colon;TX&colon;b&colon;Bi&colon;t=Sempre marcato il basso	!	!	!	!	!	!
!null	!	!	!	!	!	!
!	!LO:TX:i:a:t=Moderato:mod=	!LO:DY:b=2:rj	!LO:TX:t=P:problem=all\middle or right&colon; global	!	!	!
2e^>\	2r	mf	1r	.	.	.
!LO:MO:mod=!null:null	!	!	!	!	!	!
!LO:TX:Bi:b:t=sempre marcato il basso	!	!	!	!	!	!
2d#X^>\	8r	.	.	.	.	.
!	!LO:MO:mod=!LO&colon;TX&colon;a&colon;Bi&colon;t=Scherzando	!	!	!	!	!
!	!LO:TX:i:a:t=scherzando:color=gray	!LO:DY:a:rj	!	!	!	!
!	!LO:TX:t=P:problem=oznaczenie "scherzando" dopisane ołówkiem	!	!	!	!	!
.	(<16f#/LL	p	.	.	.	.
.	16g#/JJ	.	.	.	.	.
!	!LO:TX:t=P:problem=staccato dopisane ołówkiem	!	!	!	!	!
.	8a'</L)	.	.	.	.	.
.	(<16g#/L	.	.	.	.	.
.	16a/JJ	.	.	.	.	.
=2	=2	=2	=2	=2	=2	=2
!	!LO:TX:t=P:problem=oba staccata dopisane ołówkie	!	!	!	!	!
2dn^>\	8b'</L)	.	1r	.	.	.
.	(<16cc#/L	.	.	.	.	.
.	16dd/JJ	.	.	.	.	.
!	!LO:SIC:s=8cc#'/L):v	!	!	!	!	!
.	8cc#/L)	.	.	.	.	.
.	8b'</J	.	.	.	.	.
2c# 2E^>\	(<4ee/	.	.	.	.	.
.	8e/)	.	.	.	.	.
.	8r	.	.	.	.	.
=3	=3	=3	=3	=3	=3	=3
2B#X 2D#X^>\	8r	.	1r	.	.	.
!	!LO:TX:t=P:problem=łuki oraz oznaczenia artykulacyjne w prawej ręce dopisane ołówkiem	!	!	!	!	!
.	(<16f#/LL	.	.	.	.	.
.	16g#/JJ	.	.	.	.	.
.	8a'</L)	.	.	.	.	.
.	(<16g#/L	.	.	.	.	.
.	16a/JJ	.	.	.	.	.
2Bn 2Dn^>\	8b'</L)	.	.	.	.	.
.	(<16g#/L	.	.	.	.	.
.	16f#/JJ)	.	.	.	.	.
.	8e'</L	.	.	.	.	.
.	8ff#'<^>/J	.	.	.	.	.
=4	=4	=4	=4	=4	=4	=4
*	*^	*	*	*	*	*
!	!LO:TX:t=P:problem=akcent nad nutą 4ee, oznaczenie dynamiczne i łuk dopisane ołówkiem	!LO:DY:b	!	!	!	!	!
2A#X 2C#^>\	4ee^>/	2.ryyyy	p	1r	.	.	.
.	(>8e/L	.	.	.	.	.	.
.	16f#/L	.	.	.	.	.	.
.	16g#/JJ	.	.	.	.	.	.
4An 4Cn^>\	8e/L	.	.	.	.	.	.
.	16f#/L	.	.	.	.	.	.
.	16g#/JJ	.	.	.	.	.	.
4G# 4BB^>\	8f#/L	4d\	.	.	.	.	.
.	8d/J)	.	.	.	.	.	.
*	*v	*v	*	*	*	*	*
=5	=5	=5	=5	=5	=5	=5
!	!LO:TX:t=P:problem=oznaczenie dynamiczne "mf." dopisane ołówkiem	!	!	!	!	!
!	!	!LO:DY:t= :mod=%s	!	!	!	!
!	!	!LO:MO:mod=!LO&colon;DY&colon;ed=	!	!	!	!
!	!	!null	!	!	!	!
2A 2AA^>\	2e 2c#/	mf	4r	.	.	.
!	!	!LO:DY:b:t=mf.:rj	!	!	!	!LO:DY:b:rj
!	!	!LO:MO:mod=.	!	!	!	!
.	.	mf	8.a/	Nie	Nie	f
.	.	.	16b/	ża-	ża-	.
2Gn 2GGn^>\	2a 2e 2c#/	.	4cc#\	-łu-	-łu-	.
.	.	.	8.dd\	-jąc	-jąc	.
.	.	.	16ee\	sił	sił	.
!!LO:LB:g=original
=6	=6	=6	=6	=6	=6	=6
!	!	!	!LO:MO:mod=!LO&colon;TX&colon;a&colon;Bi&colon;t=Marcato	!	!	!
!	!	!	!LO:TX:i:a:t=marcato	!	!	!
2F# 2FF#^>/	2a 2d 2A/	.	4dd\	wła-	wła-	.
.	.	.	8b\	-snych	-snych	.
.	.	.	16r	.	.	.
.	.	.	16cc#\	i	i	.
2Fn 2FFn^>/	2a 2d 2A/	.	4dd\	cięż-	cię-	.
.	.	.	8.cc#\	-kiėj	-żkiej	.
.	.	.	16b\	fa-	fa-	.
=7	=7	=7	=7	=7	=7	=7
2E 2EE^>/	2a 2c# 2A/	.	4cc#\	-ty-	-ty-	.
.	.	.	8a/	-gi	-gi,	.
.	.	.	16r	.	.	.
.	.	.	16g#/	Dwa	dwa	.
2D#X 2DD#X^>/	2f# 2B 2A/	.	8.f#/	żół-	żół-	.
.	.	.	16f#/	-wie	-wie	.
.	.	.	8.g#/	pod	pod	.
.	.	.	16a/	za-	za-	.
=8	=8	=8	=8	=8	=8	=8
2Dn 2DDn^>/	2g# 2e 2B/	.	(>4b\	-kła-	-kła-	.
.	.	.	8cc#\)	.	.	.
.	.	.	8b\	-dem	-dem	.
2C# 2CC#^>/	2a 2e 2A/	.	8.a/	po-	po-	.
.	.	.	16b/	-szły	-szły	.
.	.	.	8.cc#\	na	na	.
.	.	.	16dd\	wyś-	wy-	.
=9	=9	=9	=9	=9	=9	=9
2Cn 2CCn^>/	2a 2e 2A/	.	4ee\	-ci-	-ści-	.
.	.	.	8e/	-gi.	-gi.	.
.	.	.	8r	.	.	.
2BB-X 2BBB-X^>/	2gn 2e 2cn 2Gn/	.	4r	.	.	.
.	.	.	8.ccn\	Nim	Nim	.
.	.	.	16dd\	po-	po-	.
!!LO:LB:g=original
=10	=10	=10	=10	=10	=10	=10
2AA 2AAA^</	2fn 2cn 2Fn</	.	4ccn\	-ło-	-ło-	.
.	.	.	8.a/	-wę	-wę	.
.	.	.	16fn/	do	do	.
2GG#X 2GGG#X^>/	2e 2d 2Bn/	.	(>4e/	me-	me-	.
.	.	.	8ee\)	.	.	.
.	.	.	8dd\	-ty	-ty	.
=11	=11	=11	=11	=11	=11	=11
2GGn 2GGGn^>/	2e 2c#X 2B/	.	8.cc#\	dro-	dro-	.
.	.	.	16dd\	-gi	-gi	.
.	.	.	8.cc#\	u-	u-	.
.	.	.	16b\	-bie-	-bie-	.
2FF# 2FFF#^>/	2e 2c# 2A#X/	.	4a#X/	-że-	-że-	.
.	.	.	8cc#\	-li,	-li,	.
.	.	.	8r	.	.	.
=12	=12	=12	=12	=12	=12	=12
2FFn 2FFFn^>/	2fn 2d 2B-X/	.	4r	.	.	.
.	.	.	8r	.	.	.
.	.	.	8dd\	Spe-	spe-	.
2EE 2EEE^>/	2gn 2cn 2B-X/	.	8.ccn\	-kta-	-kta-	.
.	.	.	16gn/	-to-	-to-	.
.	.	.	8.a/	-ro-	-ro-	.
.	.	.	16b-X/	-wie	-wie	.
=13	=13	=13	=13	=13	=13	=13
2EE-X 2EEE-X^>/	2a 2fn 2cn 2A/	.	4ccn\	po-	po-	.
.	.	.	8dd\	-szli,	-szli,	.
.	.	.	16r	.	.	.
.	.	.	16ee-X\	Sę-	sę-	.
[>2DD [<2DDD^>/	2b-X 2fn 2B-X/	.	4ffn\	-dzio-	-dzio-	.
.	.	.	8dd^>\	-wie	-wie	.
.	.	.	8cc^>\	zas-	za-	.
!!LO:LB:g=original
=14	=14	=14	=14	=14	=14	=14
2DD_> 2DDD/_<	[>2fn [>2B-X< [>2Fn</	.	(>4b-X\	-snę-	-snę-	.
.	.	.	8ccn\L	.	.	.
.	.	.	8b-\J)	.	.	.
8DD] 8DDD/]	8f] 8B-<] 8F</]	.	[<4fn/	-li.	-li.	.
8r	8r	.	.	.	.	.
8r;>	8r;>	.	8f;>/]	.	.	.
8r	8r	.	8r	.	.	.
=15	=15	=15	=15	=15	=15	=15
*clefG2	*	*	*	*	*	*
!	!	!LO:DY:b:rj	!	!	!	!
1b-X 1fn 1d	4r	p	1r	.	.	.
!	!LO:TX:t=P:problem=oznaczenia artykulacyjne w prawej ręce (staccata i akcenty) w t. 15-18 dopisane ołówkiem	!	!	!	!	!
.	8bb-X'>\L	.	.	.	.	.
!	!LO:TX:t=P:problem=łuk dopisany ołówkiem	!	!	!	!	!
.	(>16cccn\L	.	.	.	.	.
.	16ddd\JJ	.	.	.	.	.
.	8bb-'>\L)	.	.	.	.	.
!	!LO:TX:t=P:problem=łuk dopisany ołówkiem	!	!	!	!	!
.	(>16ccc\L	.	.	.	.	.
.	16ddd\JJ	.	.	.	.	.
.	8ccc'>\L)	.	.	.	.	.
.	8bb-'>\J	.	.	.	.	.
=16	=16	=16	=16	=16	=16	=16
2b-X 2fn 2d-X/	(>4fffn\	.	1r	.	.	.
.	8ffn\)	.	.	.	.	.
.	8r	.	.	.	.	.
2a 2e-X 2cn/	8r	.	.	.	.	.
!	!LO:TX:t=P:problem=crescendo dopisane ołówkiem	!LO:HP:b	!	!	!	!
!	!LO:TX:t=P:problem=łuk dopisany ołówkiem	!	!	!	!	!
.	(>16ff\LL	<	.	.	.	.
.	16ggn\JJ	.	.	.	.	.
.	8aa'>\L)	.	.	.	.	.
!	!LO:TX:t=P:problem=łuk dopisany ołówkiem	!	!	!	!	!
.	(>16bb-X\L	.	.	.	.	.
.	16cccn\JJ	.	.	.	.	.
=17	=17	=17	=17	=17	=17	=17
2g#X 2dn 2B-X/	8dddn'>\L)	.	1r	.	.	.
!	!LO:TX:t=P:problem=łuk dopisany ołówkiem	!	!	!	!	!
.	(>16eee\L	[	.	.	.	.
.	16fffn\JJ	.	.	.	.	.
.	8eee'>\L)	.	.	.	.	.
.	[>8ddd^>\J	.	.	.	.	.
!	!LO:TX:t=P:problem=decrescendo dopisane ołówkiem	!LO:HP:b	!	!	!	!
2g# 2d 2Bn/	8ddd\L]	>	.	.	.	.
!	!LO:TX:t=P:problem=łuk dopisany ołówkiem	!	!	!	!	!
.	(>16eee\L	.	.	.	.	.
.	16fff\JJ	.	.	.	.	.
.	8eee\L)	.	.	.	.	.
!	!LO:TX:t=P:problem=początek ligatury dopisany ołówkiem	!	!	!	!	!
.	[>8ddd^>\J	]]	.	.	.	.
*clefF4	*	*	*	*	*	*
!!LO:LB:g=original
=18	=18	=18	=18	=18	=18	=18
4E\	8ddd\L]	.	1r	.	.	.
.	(>16eee\L	.	.	.	.	.
!	!	!LO:MO:mod=!null:null	!	!	!	!
!	!LO:TX:t=P:problem=oznaczenie "diminuendo" dopisane ołówkiem	!LO:HP:b:t=diminuendo	!	!	!	!
.	16fffn\JJ	>	.	.	.	.
4g# 4d 4B\	8eee'>\L)	.	.	.	.	.
.	(>16ddd\L	.	.	.	.	.
.	16fff\JJ	.	.	.	.	.
2r	8eee'>\L)	.	.	.	.	.
.	(>16ddd\L	.	.	.	.	.
.	16fff\JJ	.	.	.	.	.
!	!LO:SIC:s=8eee'\L):v	!	!	!	!	!
.	8eee\L)	.	.	.	.	.
.	(>16ddd\L	.	.	.	.	.
.	16fff\JJ)	.	.	.	.	.
=19	=19	=19	=19	=19	=19	=19
[<4qqE/	.	.	.	.	.	.
[<4qqB/	.	.	.	.	.	.
!	!	!LO:DY:b:rj	!	!	!	!
[<2g#> [>2B] 2E\_>	[>2eee/ [>2ddd/ [>2bb/ [<2ee/	pp	4r	.	.	.
.	.	.	8r	.	.	.
.	.	.	8ee\	Więc	Więc	.
*	*	*	*2\right	*	*	*
!	!	!	!LO:MO:mod=!LO&colon;TX&colon;a&colon;Bi&colon;t=Ad libitum	!	!	!
!	!	!	!LO:TX:i:a:t=ad libitum	!	!	!
4g#>] 4B] 4E\]	4eee/] 4ddd/] 4bb/] 4ee/]	.	[>2ee\	rze-	rze-	.
4r	4r	.	.	.	.	.
=20	=20	=20	=20	=20	=20	=20
1r	1r	.	8ee\]	.	.	.
.	.	.	8dd\	-kła	-kła	.
.	.	.	8.b\	im	im	.
.	.	.	16a/	jas-	ja-	.
.	.	.	4.a/	-kół-	-skół-	.
.	.	.	16b/LL	.	.	.
.	.	.	16a/JJ	.	.	.
=21	=21	=21	=21	=21	=21	=21
2e^>\	2r	.	[<4g#/	-ka:	-ka:	.
!	!LO:MO:mod=!null:null	!	!	!	!	!
!	!LO:TX:a:i:t=rallen -:color=gray	!	!	!	!	!
!	!LO:TX:t=P:problem=oznaczenie "rallen -" dopisane ołówkiem	!	!	!	!	!
.	.	.	8g#/]	.	.	.
.	.	.	8r	.	.	.
2d#X^>\	8r	.	2r	.	.	.
!	!LO:MO:mod=!LO&colon;TX&colon;a&colon;Bi&colon;t=Rall.	!	!	!	!	!
!	!null	!	!	!	!	!
.	(<16f#/LL	.	.	.	.	.
.	16g#/JJ	.	.	.	.	.
!	!LO:TX:t=P:problem=staccato dopisane ołówkiem	!	!	!	!	!
.	8a'</L)	.	.	.	.	.
!	!LO:TX:t=P:problem=łuk dopisany ołówkiem	!	!	!	!	!
.	(<16g#/L	.	.	.	.	.
.	16a/JJ	.	.	.	.	.
!!LO:PB:g=original
=22	=22	=22	=22	=22	=22	=22
*	*^	*	*	*	*	*
!	!LO:MO:mod=!LO&colon;TX&colon;a&colon;Bi&colon;t=A tempo	!	!	!	!	!	!
!	!LO:TX:a:i:t=tempo:color=gray	!	!	!	!	!	!
!	!LO:TX:t=P:problem=oznaczenie "tempo", staccata oraz łuki dopisane ołówkiem	!	!	!	!	!	!
2dn\	8b'>\L)	2ryyyy	.	1r	.	.	.
.	(>16cc#\L	.	.	.	.	.	.
.	16dd\JJ	.	.	.	.	.	.
!	!LO:SIC:s=8cc#'\L):v	!	!	!	!	!	!
.	8cc#\L)	.	.	.	.	.	.
.	8b'>\J	.	.	.	.	.	.
2G# 2E\	(>4ee/	2d\	.	.	.	.	.
.	4e/)	.	.	.	.	.	.
=23	=23	=23	=23	=23	=23	=23	=23
!	!LO:MO:mod=!LO&colon;TX&colon;a&colon;Bi&colon;t=Più lento	!	!	!	!	!	!
!	!	!	!	!LO:MO:mod=!null:null	!	!	!
!	!LO:TX:i:a:t=Più lento	!	!	!LO:TX:i:a:t=Più lento	!	!	!
!	!LO:TX:t=P:problem=łuki, ligatury oraz staccata w t. 23-28 w partii fortepianu dopisane ołówkiem	!	!	!	!	!	!
2A 2AA\	(>4.e/	2c#\	.	4r	.	.	.
!	!	!	!	!LO:MO:mod=!LO&colon;TX&colon;a&colon;Bi&colon;t=Più lento	!	!	!
!	!	!	!	!null	!	!	!
.	.	.	.	8.a/	Le-	Le-	.
.	16f#/LL	.	.	.	.	.	.
.	16g#/JJ)	.	.	16b/	-piėj	-piej	.
2Gn 2GGn\	(>4.a/	2e 2c#\	.	(>4cc#\	się	się	.
.	.	.	.	8.dd\)	.	.	.
.	16b/LL	.	.	.	.	.	.
.	16a/JJ)	.	.	16ee\	po-	po-	.
=24	=24	=24	=24	=24	=24	=24	=24
2F# 2FF#\	(>8a/L	2d 2A\	.	4dd\	-go-	-go-	.
.	16f#/L	.	.	.	.	.	.
.	16e/JJ	.	.	.	.	.	.
.	[<4d/	.	.	8.b\	-dzić	-dzić,	.
.	.	.	.	16cc#\	po-	po-	.
2Fn 2FFn\	8d/L)]	2A\	.	(>4dd\	-go-	-go-	.
.	(<16e/L	.	.	.	.	.	.
.	16d/JJ	.	.	.	.	.	.
.	8a/L	.	.	8.cc#\L	.	.	.
.	16g#/L	.	.	.	.	.	.
.	16a/JJ)	.	.	16b\Jk)	.	.	.
=25	=25	=25	=25	=25	=25	=25	=25
2E 2EE/	(>8a/L	2c# 2A\	.	8cc#\	-dzic	-dzić,	.
.	16e/L	.	.	8r	.	.	.
.	16f#/JJ	.	.	.	.	.	.
.	8e/L	.	.	8.a/	Pier-	pier-	.
.	16d#X/L	.	.	.	.	.	.
.	16e/JJ)	.	.	16g#/	-wej,	-wej,	.
2D#X 2DD#X/	(>4.f#/	2B 2A\	.	4f#/	ni-	ni-	.
.	.	.	.	8.g#/	-że-	-że-	.
.	16e#X/LL	.	.	.	.	.	.
.	16f#/JJ)	.	.	16a/	-li	-li	.
!!LO:LB:g=original
=26	=26	=26	=26	=26	=26	=26	=26
2Dn 2DDn/	(>8g#/L	2e 2B\	.	4b\	bie-	bie-	.
.	8b/J	.	.	.	.	.	.
.	[>4e/	.	.	8cc#\	-gać,	-gać,	.
.	.	.	.	16r	.	.	.
.	.	.	.	16b\	na-	na-	.
2C# 2CC#/	8e/L])	2A\	.	(<8.a/L	-ucz-	-ucz-	.
.	(<16f#/L	.	.	.	.	.	.
.	16g#/JJ	.	.	16b/Jk)	.	.	.
.	8f#/L	.	.	8.cc#\	-cie	-cie	.
.	8e/J)	.	.	.	.	.	.
.	.	.	.	16dd\	się	się	.
=27	=27	=27	=27	=27	=27	=27	=27
!	!LO:TX:t=P:problem=4e poprawione na 2e	!	!	!	!	!	!
2BB 2BBB/	2e 2d 2G#/	2ryyyy	.	4ee\	cho-	cho-	.
.	.	.	.	8e/	-dzić	-dzić,	.
.	.	.	.	8r	.	.	.
8AA#X'>\L	2e 2c#/	4Gn</	.	2ee\	Pier-	pier-	.
(>16AA#\L	.	.	.	.	.	.	.
16BB\JJ	.	.	.	.	.	.	.
8AA#'>\L)	.	4F#</	.	.	.	.	.
(>16GG#\L	.	.	.	.	.	.	.
16FF#\JJ	.	.	.	.	.	.	.
=28	=28	=28	=28	=28	=28	=28	=28
8BB'>\)	8dL 8B 8F#</	2ryyyy	.	8.dd\	-wej,	-wej,	.
8r	(<16f#/L	.	.	.	.	.	.
.	16e/JJ	.	.	16cc#\	ni-	ni-	.
!LO:MO:mod=!null:null	!	!	!	!	!	!	!
!LO:N:vis=8	!	!	!	!	!	!	!
4r	8d'</L)	.	.	8.b\	-że-	-że-	.
.	(<16e/L	.	.	.	.	.	.
.	16f#/JJ	.	.	16a/	-li	-li	.
8EE#X'>\L	2g# 2c#/)	(>4G#</	.	(>4.g#/	bie-	bie-	.
(>16EE#\L	.	.	.	.	.	.	.
16FF#\JJ	.	.	.	.	.	.	.
8EE#'</L)	.	4B</)	.	.	.	.	.
(<16DD#X/L	.	.	.	8b\)	.	.	.
16CC#/JJ	.	.	.	.	.	.	.
*	*v	*v	*	*	*	*	*
!!LO:LB:g=original
=29	=29	=29	=29	=29	=29	=29
!LO:SIC:s=8FF#'/):v	!	!	!	!	!	!
!	!LO:TX:t=P:problem=łuki oraz oznaczenia artykulacyjne dopisane ołówkiem	!	!	!	!	!
8FF#/)	8f#L 8c# 8A'</	.	4a/	-gać	-gać,	.
8r	(<16f#/L	.	.	.	.	.
.	16g#/JJ	.	.	.	.	.
4r	8a'</L)	.	8r	.	.	.
.	(<16g#/L	.	16r	.	.	.
!	!	!	!LO:MO:mod=!LO&colon;TX&colon;a&colon;Bi&colon;t=Molto rall.	!	!	!
!	!	!	!LO:TX:i:a:t=molto rallentando	!	!	!
.	16a/JJ)	.	16f#/	na-	na-	.
!	!LO:MO:mod=!LO&colon;TX&colon;a&colon;Bi&colon;t=Molto rall.	!	!	!	!	!
!	!LO:TX:i:b:t=molto rallentando	!	!	!	!	!
4F#\	4a 4f# 4c#/	.	4cc#\	-ucz-	-ucz-	.
!	!	!LO:MO:mod=!null:null	!	!	!	!
!	!	!LO:HP:i:a:t=diminuendo	!	!	!	!
4r	4r	>	8b\	-cie	-cie,	.
.	.	.	16r	.	.	.
.	.	.	16a/	na-	na-	.
=30	=30	=30	=30	=30	=30	=30
4D#X\	4a 4f# 4c#/	.	4cc#\	-ucz-	-ucz-	.
4r	4r	.	8b\	-cie	-cie	.
.	.	.	16r	.	.	.
.	.	.	16a/	się	się	.
!	!	!	!	!	!	!LO:DY:b:rj
2r	2r	.	(>2ff#\	cho-	cho-	p
=31	=31	=31	=31	=31	=31	=31
!	!LO:TX:t=P:problem=oba oznaczenia "in tempo" dopisane ołówkiem	!LO:DY:b:t=mf.:rj	!LO:TX:t=P:problem=oznaczenie dynamiczne "f" dopisane ołówkiem	!	!	!LO:DY:b:rj
!	!LO:MO:mod=!LO&colon;TX&colon;a&colon;Bi&colon;t=In tempo	!	!LO:MO:mod=!LO&colon;TX&colon;a&colon;Bi&colon;t=In tempo	!	!	!
!	!LO:TX:a:i:t=in tempo:color=gray	!	!LO:TX:a:i:t=in tempo:color=gray	!	!	!
!LO:TX:t=P:problem=staccata dopisane ołówkiem	!LO:TX:t=P:problem=oznaczenie "mf." dopisane ołówkiem. Korekta oznaczenia "p"	!	!	!	!	!
8E'>\L	[>2b 2a [>2d [<2B/	mf	2b\	.	.	f
(>16F#\L	.	.	.	.	.	.
16E\JJ)	.	.	.	.	.	.
!LO:TX:t=P:problem=mixed beam	!	!	!	!	!	!
8E'>\L	.	.	.	.	.	.
8EE'</J	.	.	.	.	.	.
8E\L	2b] 2g# 2d] 2B/]	.	2ee\)	.	.	.
!LO:TX:t=P:problem=łuk dopisany ołówkiem	!	!	!	!	!	!
(>16F#\L	.	.	.	.	.	.
16E\JJ)	.	.	.	.	.	.
!LO:TX:t=P:problem=mixed beam	!	!	!	!	!	!
8E\L	.	.	.	.	.	.
8EE/J	.	.	.	.	.	.
=32	=32	=32	=32	=32	=32	=32
!	!	!LO:DY:b=2:rj	!	!	!	!
2A 2AA^>/	[>4a [>4e [<4c#/	f	[<4a/	-dzic.	-dzić.	.
.	8a] 8e] 8c#/]	.	8a/]	.	.	.
.	8r	.	8r	.	.	.
4G# 4GG#^>\	8r	.	2r	.	.	.
!	!LO:TX:t=P:problem=dwa najbliższe łuki dopisane ołówkiem	!	!	!	!	!
.	(<16A/LL	.	.	.	.	.
.	16B/JJ	.	.	.	.	.
!	!LO:TX:t=P:problem=staccato dopisane ołówkiem	!	!	!	!	!
4Gn 4GGn^>/	8c#'</L)	.	.	.	.	.
.	(<16B/L	.	.	.	.	.
.	16c#/JJ	.	.	.	.	.
!!LO:LB:g=original
=33	=33	=33	=33	=33	=33	=33
!	!	!LO:MO:mod=!null:null	!	!	!	!
!	!LO:TX:t=P:problem=łuk i staccata w prawej ręce dopisane ołówkiem	!LO:HP:i:a:t=crescendo	!	!	!	!
4F# 4FF#^>/	8d'</L)	<	1r	.	.	.
.	(<16a/L	.	.	.	.	.
.	16g#/JJ	.	.	.	.	.
4Fn 4FFn^>/	8a'</L)	.	.	.	.	.
!	!LO:TX:t=P:problem=decrescendo dopisane ołówkiem	!LO:HP:b	!	!	!	!
.	8A/J	>	.	.	.	.
!	!LO:MO:mod=!LO&colon;TX&colon;a&colon;Bi&colon;t=Riten.	!	!	!	!	!
!	!LO:TX:i:a:t=e ritenuto	!	!	!	!	!
8EL 8EE^>/	16c#/LL	.	.	.	.	.
.	16e/	.	.	.	.	.
8D#XJ 8DD#X^>/	16f#/	.	.	.	.	.
.	16g#/JJ	.	.	.	.	.
16DnLL 16DDn^>/	8a/L	.	.	.	.	.
16C# 16CC#^>/	.	.	.	.	.	.
!LO:TX:a:t=P:problem=triola bez klamry	!	!	!	!	!	!
24Cn 24CCn^>/	8A/J	]	.	.	.	.
24BB 24BBB^>/	.	.	.	.	.	.
24BB-XJJ 24BBB-X^>/	.	.	.	.	.	.
=34	=34	=34	=34	=34	=34	=34
[>2AA [<2AAA/	[>2a [>2e [<2c#/	.	2r	.	.	.
4AA] 4AAA;>/]	4a] 4e] 4c#;>/]	.	4r;>	.	.	.
4r	4r	.	4r	.	.	.
==	==	==	==	==	==	==
*-	*-	*-	*-	*-	*-	*-
!!!system-decoration: s1{(s2,s3)}
!!!RDF**kern: > = above
!!!RDF**kern: < = below
!!!filter-modern: sic -sq | shed -e "s/LO:DY:(a|b|rj)/LO:dy:$1/L" | shed -e "s/TX(.*):t=P:/tx$1:t=P:/LG" | modori -m | autostem -r | shed -e "s/yy//" | shed -k -e "s/\(y([^y])/($1/" | shed -e "s/-//B" | shed -e "s/^(\d+[\/\\]right)/$1yy/I; s/^(\d+[\/\\]left)/$1yy/I" | shed -k -e "s/[<>]//g" | shed -k -e "s/r[a-gA-G]+/r/D"
!!!ENC: Katarzyna Serwa
!!!END: 2021-05-12
!!!EED: Antoni Szymański
!!!EEV: 2021-06-06
!!!EED-modern: Antoni Szymański
!!!END-modern: 2022-08-22
!!!YEC: Copyright 2022 Narodowy Instytut Fryderyka Chopina (https://polishscores.org)
!!!YEM: License CC-BY-4.0 (https://creativecommons.org/licenses/by/4.0)
